public/icons/contact-location.svg

<svg width="33" height="32" viewBox="0 0 33 32" fill="none" xmlns="http://www.w3.org/2000/svg">
<g clip-path="url(#clip0_573_2497)">
<path d="M32.4231 30.6882L26.7764 17.5139C26.6279 17.168 26.2876 16.9436 25.9114 16.9436H22.3252C23.7766 14.408 24.9702 11.6016 24.9702 9.22705C24.9702 -3.00098 8.02978 -3.15015 8.02978 9.22705C8.02978 11.6016 9.22339 14.408 10.6748 16.9436H7.08862C6.71216 16.9436 6.37182 17.168 6.22363 17.5139L0.576901 30.6882C0.311276 31.3079 0.766354 32 1.44189 32H31.5581C32.2322 32 32.6892 31.3093 32.4231 30.6882ZM25.2905 18.8257L28.0769 25.3262C27.9897 25.3716 18.9209 30.0808 18.856 30.1179H16.886C16.8362 30.0623 17.2595 30.4878 11.1257 24.3547L14.5327 22.6111C15.2273 23.4976 15.7139 24.0608 15.7898 24.1482C16.1648 24.5798 16.8354 24.5791 17.21 24.1482C17.3674 23.967 19.2859 21.7441 21.1758 18.8257H25.2905ZM16.5 1.88696C19.6729 1.88696 23.0879 4.18408 23.0879 9.22705C23.0879 13.4673 18.3347 19.7776 16.5 22.0549C14.6653 19.7773 9.91211 13.4673 9.91211 9.22705C9.91211 4.15673 13.2207 1.88696 16.5 1.88696ZM7.70923 18.8257C12.2683 18.8257 11.7502 18.8264 11.8232 18.8242C12.3533 19.6428 12.8855 20.4067 13.3806 21.0864L4.87426 25.4399L7.70923 18.8257ZM3.71338 28.1484L9.36523 25.2559L14.228 30.1179H2.86914L3.71338 28.1484ZM22.9351 30.1179L28.8206 27.0608L30.1309 30.1179H22.9351Z" fill="white"/>
<path d="M19.3232 8.47461C19.3232 6.91797 18.0566 5.65137 16.5 5.65137C14.9431 5.65137 13.6765 6.91797 13.6765 8.47461C13.6765 10.0313 14.9431 11.2976 16.5 11.2976C18.0566 11.2976 19.3232 10.0313 19.3232 8.47461ZM15.5588 8.47461C15.5588 7.95557 15.981 7.53345 16.5 7.53345C17.0188 7.53345 17.4412 7.95557 17.4412 8.47461C17.4412 8.99341 17.0188 9.41553 16.5 9.41553C15.981 9.41553 15.5588 8.99341 15.5588 8.47461Z" fill="white"/>
</g>
<defs>
<clipPath id="clip0_573_2497">
<rect width="32" height="32" fill="white" transform="translate(0.5)"/>
</clipPath>
</defs>
</svg>

<svg xmlns="http://www.w3.org/2000/svg" fill="none" viewBox="0 0 33 32"><g fill="#fff" clip-path="url(#a)"><path d="m32.423 30.688-5.647-13.174a.94.94 0 0 0-.865-.57h-3.586c1.452-2.536 2.645-5.342 2.645-7.717C24.97-3 8.03-3.15 8.03 9.227c0 2.375 1.193 5.181 2.645 7.717H7.089a.94.94 0 0 0-.865.57L.577 30.688A.942.942 0 0 0 1.442 32h30.116a.942.942 0 0 0 .865-1.312m-7.132-11.862 2.786 6.5c-.087.046-9.156 4.755-9.221 4.792h-1.97c-.05-.056.373.37-5.76-5.763l3.407-1.744c.694.887 1.18 1.45 1.257 1.537a.94.94 0 0 0 1.42 0 52 52 0 0 0 3.966-5.322zM16.5 1.887c3.173 0 6.588 2.297 6.588 7.34 0 4.24-4.753 10.55-6.588 12.828-1.835-2.278-6.588-8.588-6.588-12.828 0-5.07 3.309-7.34 6.588-7.34M7.71 18.826c4.558 0 4.04 0 4.113-.002a50 50 0 0 0 1.558 2.262L4.874 25.44zm-3.997 9.322 5.652-2.892 4.863 4.862H2.869zm19.222 1.97 5.886-3.057 1.31 3.057z"/><path d="M19.323 8.475A2.827 2.827 0 0 0 16.5 5.65a2.827 2.827 0 0 0-2.823 2.824 2.826 2.826 0 0 0 2.823 2.823 2.826 2.826 0 0 0 2.823-2.823m-3.764 0a.942.942 0 0 1 1.882 0 .942.942 0 0 1-1.882 0"/></g><defs><clipPath id="a"><path fill="#fff" d="M.5 0h32v32H.5z"/></clipPath></defs></svg>
